svgs/solid/grate.svg

<svg xmlns="http://www.w3.org/2000/svg" viewBox="0 0 448 512"><!--! Font Awesome Pro 6.0.0-alpha3 by @fontawesome - https://fontawesome.com License - https://fontawesome.com/license (Commercial License) --><path d="M384 32H64C28.65 32 0 60.65 0 96v320c0 35.35 28.65 64 64 64h320c35.35 0 64-28.65 64-64V96C448 60.65 419.3 32 384 32zM96 416H64V288h32V416zM96 224H64V96h32V224zM192 416H160V288h32V416zM192 224H160V96h32V224zM288 416h-32V288h32V416zM288 224h-32V96h32V224zM384 416h-32V288h32V416zM384 224h-32V96h32V224z"/></svg>

<svg xmlns="http://www.w3.org/2000/svg" viewBox="0 0 448 512"><!-- Font Awesome Pro 6.0.0-alpha2 by @fontawesome - https://fontawesome.com License - https://fontawesome.com/license (Commercial License) --><path d="M384 32H64C28.654 32 0 60.652 0 96V416C0 451.346 28.654 480 64 480H384C419.346 480 448 451.346 448 416V96C448 60.652 419.346 32 384 32ZM96 416H64V288H96V416ZM96 224H64V96H96V224ZM192 416H160V288H192V416ZM192 224H160V96H192V224ZM288 416H256V288H288V416ZM288 224H256V96H288V224ZM384 416H352V288H384V416ZM384 224H352V96H384V224Z"/></svg>
